bicons/22x22/emblems/directory.svg

<?xml version="1.0" encoding="UTF-8" standalone="no"?>
<!-- Created with Inkscape (http://www.inkscape.org/) -->

<svg
   xmlns:dc="http://purl.org/dc/elements/1.1/"
   xmlns:cc="http://creativecommons.org/ns#"
   xmlns:rdf="http://www.w3.org/1999/02/22-rdf-syntax-ns#"
   xmlns:svg="http://www.w3.org/2000/svg"
   xmlns="http://www.w3.org/2000/svg"
   xmlns:xlink="http://www.w3.org/1999/xlink"
   xmlns:sodipodi="http://sodipodi.sourceforge.net/DTD/sodipodi-0.dtd"
   xmlns:inkscape="http://www.inkscape.org/namespaces/inkscape"
   width="210mm"
   height="297mm"
   viewBox="0 0 744.09448819 1052.3622047"
   id="svg2"
   version="1.1"
   inkscape:version="0.91 r13725"
   inkscape:export-xdpi="4.949976"
   inkscape:export-ydpi="4.949976"
   sodipodi:docname="directory.svg"
   inkscape:export-filename="D:\Dokumente\Arbeit\RRZE\github\bicons\22x22\emblems\directory.png">
  <title
     id="title4165">directory</title>
  <defs
     id="defs4">
    <linearGradient
       id="linearGradient2224">
      <stop
         id="stop2226"
         offset="0"
         style="stop-color:#7c7c7c;stop-opacity:1;" />
      <stop
         id="stop2228"
         offset="1"
         style="stop-color:#b8b8b8;stop-opacity:1;" />
    </linearGradient>
    <linearGradient
       id="linearGradient15218">
      <stop
         id="stop15220"
         offset="0"
         style="stop-color:#eeeeef;stop-opacity:1;" />
      <stop
         id="stop2736"
         offset="0.59928656"
         style="stop-color:#d3d7cf;stop-opacity:1;" />
      <stop
         id="stop2738"
         offset="0.82758623"
         style="stop-color:#ffffff;stop-opacity:1;" />
      <stop
         id="stop15222"
         offset="1"
         style="stop-color:#d3d7cf;stop-opacity:1;" />
    </linearGradient>
    <pattern
       y="0"
       x="0"
       height="6"
       width="6"
       patternUnits="userSpaceOnUse"
       id="EMFhbasepattern" />
    <pattern
       y="0"
       x="0"
       height="6"
       width="6"
       patternUnits="userSpaceOnUse"
       id="EMFhbasepattern-5" />
    <pattern
       y="0"
       x="0"
       height="6"
       width="6"
       patternUnits="userSpaceOnUse"
       id="EMFhbasepattern-9" />
    <linearGradient
       inkscape:collect="always"
       xlink:href="#linearGradient4321"
       id="linearGradient4391"
       x1="54.540001"
       y1="327.23987"
       x2="327.23999"
       y2="36.359978"
       gradientUnits="userSpaceOnUse"
       gradientTransform="translate(190,322.36222)" />
    <linearGradient
       id="linearGradient4321"
       inkscape:collect="always">
      <stop
         id="stop4323"
         offset="0"
         style="stop-color:#4e505d;stop-opacity:1;" />
      <stop
         id="stop4325"
         offset="1"
         style="stop-color:#7a8597;stop-opacity:1" />
    </linearGradient>
  </defs>
  <sodipodi:namedview
     id="base"
     pagecolor="#ffffff"
     bordercolor="#666666"
     borderopacity="1.0"
     inkscape:pageopacity="0.0"
     inkscape:pageshadow="2"
     inkscape:zoom="1"
     inkscape:cx="143.88629"
     inkscape:cy="579.1317"
     inkscape:document-units="px"
     inkscape:current-layer="layer1"
     showgrid="false"
     showguides="true"
     inkscape:guide-bbox="true"
     inkscape:window-width="1600"
     inkscape:window-height="837"
     inkscape:window-x="-4"
     inkscape:window-y="-4"
     inkscape:window-maximized="1"
     inkscape:snap-bbox="true"
     inkscape:bbox-nodes="true">
    <sodipodi:guide
       position="560,730.00002"
       orientation="0,1"
       id="guide3338" />
    <sodipodi:guide
       position="560,330.00001"
       orientation="0,1"
       id="guide3340" />
    <sodipodi:guide
       position="190,475.00001"
       orientation="1,0"
       id="guide3344" />
    <sodipodi:guide
       position="590.00001,666.00002"
       orientation="1,0"
       id="guide3346" />
    <inkscape:grid
       type="xygrid"
       id="grid3440" />
  </sodipodi:namedview>
  <metadata
     id="metadata7">
    <rdf:RDF>
      <cc:Work
         rdf:about="">
        <dc:format>image/svg+xml</dc:format>
        <dc:type
           rdf:resource="http://purl.org/dc/dcmitype/StillImage" />
        <dc:title>directory</dc:title>
        <dc:date>June 2015</dc:date>
        <dc:creator>
          <cc:Agent>
            <dc:title>Johannes Hechler</dc:title>
          </cc:Agent>
        </dc:creator>
        <dc:rights>
          <cc:Agent>
            <dc:title>Johannes Hechler</dc:title>
          </cc:Agent>
        </dc:rights>
        <dc:publisher>
          <cc:Agent>
            <dc:title>RRZE</dc:title>
          </cc:Agent>
        </dc:publisher>
        <dc:contributor>
          <cc:Agent>
            <dc:title>Ute Weber, Hendrik Eggers</dc:title>
          </cc:Agent>
        </dc:contributor>
      </cc:Work>
    </rdf:RDF>
  </metadata>
  <g
     inkscape:label="Ebene 1"
     inkscape:groupmode="layer"
     id="layer1">
    <g
       id="g4172">
      <path
         id="rect4362"
         d="m 353.61914,340.54102 c -10.07172,0 -18.17969,8.10796 -18.17969,18.17968 l 0,90.90039 c 0,10.07172 8.10797,18.17969 18.17969,18.17969 l 36.36133,0 0,36.36133 -136.34961,0 c -4.72111,0 -8.58108,3.56143 -9.04492,8.15625 l 0,0.002 c -0.0308,0.30571 -0.0469,0.61756 -0.0469,0.93164 l 0,63.62891 -23.03515,0 c -7.38156,0 -13.32422,5.94266 -13.32422,13.32422 l 0,64.25195 c 0,7.38157 5.94266,13.32422 13.32422,13.32422 l 64.25195,0 c 7.38157,0 13.32422,-5.94265 13.32422,-13.32422 l 0,-64.25195 c 0,-7.38156 -5.94265,-13.32422 -13.32422,-13.32422 l -23.03516,0 0,-54.53906 127.25977,0 0,54.53906 -23.03711,0 c -7.38156,0 -13.32422,5.94266 -13.32422,13.32422 l 0,64.25195 c 0,7.38157 5.94266,13.32422 13.32422,13.32422 l 64.25195,0 c 7.38157,0 13.32422,-5.94265 13.32422,-13.32422 l 0,-64.25195 c 0,-7.38156 -5.94265,-13.32422 -13.32422,-13.32422 l -23.03515,0 0,-54.53906 127.25976,0 0,54.54101 -23.03515,0 c -7.38157,0 -13.32422,5.94266 -13.32422,13.32422 l 0,64.25 c 0,7.38157 5.94265,13.32422 13.32422,13.32422 l 64.29296,0 c 7.38157,0 13.32422,-5.94265 13.32422,-13.32422 l 0,-64.25 c 0,-7.38156 -5.94265,-13.32422 -13.32422,-13.32422 l -23.07812,0 0,-63.63086 c 0,-5.03585 -4.05399,-9.08984 -9.08984,-9.08984 l -136.34961,0 0,-36.36133 36.35937,0 c 10.07172,0 18.17969,-8.10797 18.17969,-18.17969 l 0,-90.90039 c 0,-10.07172 -8.10797,-18.17968 -18.17969,-18.17968 l -90.90039,0 z"
         style="color:#000000;clip-rule:nonzero;display:inline;overflow:visible;visibility:visible;opacity:1;isolation:auto;mix-blend-mode:normal;color-interpolation:sRGB;color-interpolation-filters:linearRGB;solid-color:#000000;solid-opacity:1;fill:url(#linearGradient4391);fill-opacity:1;fill-rule:evenodd;stroke:none;stroke-width:36;stroke-linecap:butt;stroke-linejoin:round;stroke-miterlimit:4;stroke-dasharray:none;stroke-dashoffset:0;stroke-opacity:1;color-rendering:auto;image-rendering:auto;shape-rendering:auto;text-rendering:auto;enable-background:accumulate"
         inkscape:connector-curvature="0" />
      <rect
         ry="9.0899897"
         y="322.36221"
         x="190"
         height="400"
         width="400.00146"
         id="rect4380"
         style="color:#000000;clip-rule:nonzero;display:inline;overflow:visible;visibility:visible;opacity:1;isolation:auto;mix-blend-mode:normal;color-interpolation:sRGB;color-interpolation-filters:linearRGB;solid-color:#000000;solid-opacity:1;fill:none;fill-opacity:1;fill-rule:evenodd;stroke:none;stroke-width:36;stroke-linecap:butt;stroke-linejoin:round;stroke-miterlimit:4;stroke-dasharray:none;stroke-dashoffset:0;stroke-opacity:1;color-rendering:auto;image-rendering:auto;shape-rendering:auto;text-rendering:auto;enable-background:accumulate" />
    </g>
  </g>
</svg>

<?xml version="1.0" encoding="UTF-8" standalone="no"?>
<!-- Created with Inkscape (http://www.inkscape.org/) -->

<svg
   xmlns:dc="http://purl.org/dc/elements/1.1/"
   xmlns:cc="http://creativecommons.org/ns#"
   xmlns:rdf="http://www.w3.org/1999/02/22-rdf-syntax-ns#"
   xmlns:svg="http://www.w3.org/2000/svg"
   xmlns="http://www.w3.org/2000/svg"
   xmlns:xlink="http://www.w3.org/1999/xlink"
   xmlns:sodipodi="http://sodipodi.sourceforge.net/DTD/sodipodi-0.dtd"
   xmlns:inkscape="http://www.inkscape.org/namespaces/inkscape"
   width="210mm"
   height="297mm"
   viewBox="0 0 744.09448819 1052.3622047"
   id="svg2"
   version="1.1"
   inkscape:version="0.91 r13725"
   inkscape:export-xdpi="4.949976"
   inkscape:export-ydpi="4.949976"
   sodipodi:docname="directory.svg"
   inkscape:export-filename="D:\Dokumente\Arbeit\RRZE\github\bicons\22x22\emblems\directory.png">
  <title
     id="title4165">directory</title>
  <defs
     id="defs4">
    <linearGradient
       id="linearGradient2224">
      <stop
         id="stop2226"
         offset="0"
         style="stop-color:#7c7c7c;stop-opacity:1;" />
      <stop
         id="stop2228"
         offset="1"
         style="stop-color:#b8b8b8;stop-opacity:1;" />
    </linearGradient>
    <linearGradient
       id="linearGradient15218">
      <stop
         id="stop15220"
         offset="0"
         style="stop-color:#eeeeef;stop-opacity:1;" />
      <stop
         id="stop2736"
         offset="0.59928656"
         style="stop-color:#d3d7cf;stop-opacity:1;" />
      <stop
         id="stop2738"
         offset="0.82758623"
         style="stop-color:#ffffff;stop-opacity:1;" />
      <stop
         id="stop15222"
         offset="1"
         style="stop-color:#d3d7cf;stop-opacity:1;" />
    </linearGradient>
    <pattern
       y="0"
       x="0"
       height="6"
       width="6"
       patternUnits="userSpaceOnUse"
       id="EMFhbasepattern" />
    <pattern
       y="0"
       x="0"
       height="6"
       width="6"
       patternUnits="userSpaceOnUse"
       id="EMFhbasepattern-5" />
    <pattern
       y="0"
       x="0"
       height="6"
       width="6"
       patternUnits="userSpaceOnUse"
       id="EMFhbasepattern-9" />
    <linearGradient
       inkscape:collect="always"
       xlink:href="#linearGradient4321"
       id="linearGradient4391"
       x1="54.540001"
       y1="327.23987"
       x2="327.23999"
       y2="36.359978"
       gradientUnits="userSpaceOnUse"
       gradientTransform="translate(190,322.36222)" />
    <linearGradient
       id="linearGradient4321"
       inkscape:collect="always">
      <stop
         id="stop4323"
         offset="0"
         style="stop-color:#4e505d;stop-opacity:1;" />
      <stop
         id="stop4325"
         offset="1"
         style="stop-color:#7a8597;stop-opacity:1" />
    </linearGradient>
  </defs>
  <sodipodi:namedview
     id="base"
     pagecolor="#ffffff"
     bordercolor="#666666"
     borderopacity="1.0"
     inkscape:pageopacity="0.0"
     inkscape:pageshadow="2"
     inkscape:zoom="1"
     inkscape:cx="364.38629"
     inkscape:cy="579.1317"
     inkscape:document-units="px"
     inkscape:current-layer="layer1"
     showgrid="false"
     showguides="true"
     inkscape:guide-bbox="true"
     inkscape:window-width="1600"
     inkscape:window-height="837"
     inkscape:window-x="-4"
     inkscape:window-y="-4"
     inkscape:window-maximized="1"
     inkscape:snap-bbox="true"
     inkscape:bbox-nodes="true">
    <sodipodi:guide
       position="560,730.00002"
       orientation="0,1"
       id="guide3338" />
    <sodipodi:guide
       position="560,330.00001"
       orientation="0,1"
       id="guide3340" />
    <sodipodi:guide
       position="190,475.00001"
       orientation="1,0"
       id="guide3344" />
    <sodipodi:guide
       position="590.00001,666.00002"
       orientation="1,0"
       id="guide3346" />
    <inkscape:grid
       type="xygrid"
       id="grid3440" />
  </sodipodi:namedview>
  <metadata
     id="metadata7">
    <rdf:RDF>
      <cc:Work
         rdf:about="">
        <dc:format>image/svg+xml</dc:format>
        <dc:type
           rdf:resource="http://purl.org/dc/dcmitype/StillImage" />
        <dc:title>directory</dc:title>
        <dc:date>June 2015</dc:date>
        <dc:creator>
          <cc:Agent>
            <dc:title>Johannes Hechler</dc:title>
          </cc:Agent>
        </dc:creator>
        <dc:rights>
          <cc:Agent>
            <dc:title>Johannes Hechler</dc:title>
          </cc:Agent>
        </dc:rights>
        <dc:publisher>
          <cc:Agent>
            <dc:title>RRZE</dc:title>
          </cc:Agent>
        </dc:publisher>
        <dc:contributor>
          <cc:Agent>
            <dc:title>Ute Weber, Hendrik Eggers</dc:title>
          </cc:Agent>
        </dc:contributor>
      </cc:Work>
    </rdf:RDF>
  </metadata>
  <g
     inkscape:label="Ebene 1"
     inkscape:groupmode="layer"
     id="layer1">
    <g
       id="g4190">
      <path
         id="rect4362"
         d="M 353.61914 340.54102 C 343.54742 340.54102 335.43945 348.64898 335.43945 358.7207 L 335.43945 449.62109 C 335.43945 459.69281 343.54742 467.80078 353.61914 467.80078 L 389.98047 467.80078 L 389.98047 504.16211 L 253.63086 504.16211 C 248.90975 504.16211 245.04978 507.72354 244.58594 512.31836 L 244.58594 512.32031 C 244.55514 512.62602 244.53906 512.93787 244.53906 513.25195 L 244.53906 576.88086 L 221.50391 576.88086 C 214.12235 576.88086 208.17969 582.82352 208.17969 590.20508 L 208.17969 654.45703 C 208.17969 661.8386 214.12235 667.78125 221.50391 667.78125 L 285.75586 667.78125 C 293.13743 667.78125 299.08008 661.8386 299.08008 654.45703 L 299.08008 590.20508 C 299.08008 582.82352 293.13743 576.88086 285.75586 576.88086 L 262.7207 576.88086 L 262.7207 522.3418 L 389.98047 522.3418 L 389.98047 576.88086 L 366.94336 576.88086 C 359.5618 576.88086 353.61914 582.82352 353.61914 590.20508 L 353.61914 654.45703 C 353.61914 661.8386 359.5618 667.78125 366.94336 667.78125 L 431.19531 667.78125 C 438.57688 667.78125 444.51953 661.8386 444.51953 654.45703 L 444.51953 590.20508 C 444.51953 582.82352 438.57688 576.88086 431.19531 576.88086 L 408.16016 576.88086 L 408.16016 522.3418 L 535.41992 522.3418 L 535.41992 576.88281 L 512.38477 576.88281 C 505.0032 576.88281 499.06055 582.82547 499.06055 590.20703 L 499.06055 654.45703 C 499.06055 661.8386 505.0032 667.78125 512.38477 667.78125 L 576.67773 667.78125 C 584.0593 667.78125 590.00195 661.8386 590.00195 654.45703 L 590.00195 590.20703 C 590.00195 582.82547 584.0593 576.88281 576.67773 576.88281 L 553.59961 576.88281 L 553.59961 513.25195 C 553.59961 508.2161 549.54562 504.16211 544.50977 504.16211 L 408.16016 504.16211 L 408.16016 467.80078 L 444.51953 467.80078 C 454.59125 467.80078 462.69922 459.69281 462.69922 449.62109 L 462.69922 358.7207 C 462.69922 348.64898 454.59125 340.54102 444.51953 340.54102 L 353.61914 340.54102 z "
         style="color:#000000;clip-rule:nonzero;display:inline;overflow:visible;visibility:visible;opacity:1;isolation:auto;mix-blend-mode:normal;color-interpolation:sRGB;color-interpolation-filters:linearRGB;solid-color:#000000;solid-opacity:1;fill:url(#linearGradient4391);fill-opacity:1;fill-rule:evenodd;stroke:none;stroke-width:36;stroke-linecap:butt;stroke-linejoin:round;stroke-miterlimit:4;stroke-dasharray:none;stroke-dashoffset:0;stroke-opacity:1;color-rendering:auto;image-rendering:auto;shape-rendering:auto;text-rendering:auto;enable-background:accumulate" />
      <rect
         ry="9.0899897"
         y="322.36221"
         x="190"
         height="400"
         width="400.00146"
         id="rect4380"
         style="color:#000000;clip-rule:nonzero;display:inline;overflow:visible;visibility:visible;opacity:1;isolation:auto;mix-blend-mode:normal;color-interpolation:sRGB;color-interpolation-filters:linearRGB;solid-color:#000000;solid-opacity:1;fill:none;fill-opacity:1;fill-rule:evenodd;stroke:none;stroke-width:36;stroke-linecap:butt;stroke-linejoin:round;stroke-miterlimit:4;stroke-dasharray:none;stroke-dashoffset:0;stroke-opacity:1;color-rendering:auto;image-rendering:auto;shape-rendering:auto;text-rendering:auto;enable-background:accumulate" />
    </g>
  </g>
</svg>
